static/svg/moremoji/pwease.svg

<?xml version="1.0" encoding="UTF-8" standalone="no"?>
<svg
   xmlns:dc="http://purl.org/dc/elements/1.1/"
   xmlns:cc="http://creativecommons.org/ns#"
   xmlns:rdf="http://www.w3.org/1999/02/22-rdf-syntax-ns#"
   xmlns:svg="http://www.w3.org/2000/svg"
   xmlns="http://www.w3.org/2000/svg"
   xmlns:sodipodi="http://sodipodi.sourceforge.net/DTD/sodipodi-0.dtd"
   xmlns:inkscape="http://www.inkscape.org/namespaces/inkscape"
   viewBox="0 0 45 45"
   style="enable-background:new 0 0 45 45;"
   xml:space="preserve"
   version="1.1"
   id="svg2"
   inkscape:version="0.91 r13725"
   sodipodi:docname="pwease.svg"
   inkscape:export-filename="C:\Users\Soyez\Desktop\Stuff\My Art\somoji\pwease.png"
   inkscape:export-xdpi="1024"
   inkscape:export-ydpi="1024"><sodipodi:namedview
     pagecolor="#ffffff"
     bordercolor="#666666"
     borderopacity="1"
     objecttolerance="10"
     gridtolerance="10"
     guidetolerance="10"
     inkscape:pageopacity="0"
     inkscape:pageshadow="2"
     inkscape:window-width="1920"
     inkscape:window-height="1031"
     id="namedview30"
     showgrid="false"
     showguides="true"
     inkscape:guide-bbox="true"
     inkscape:zoom="11.313709"
     inkscape:cx="22.259666"
     inkscape:cy="30.188694"
     inkscape:window-x="-8"
     inkscape:window-y="-8"
     inkscape:window-maximized="1"
     inkscape:current-layer="layer4"><sodipodi:guide
       position="-13.347458,65.211864"
       orientation="0,1"
       id="guide4271" /></sodipodi:namedview><metadata
     id="metadata8"><rdf:RDF><cc:Work
         rdf:about=""><dc:format>image/svg+xml</dc:format><dc:type
           rdf:resource="http://purl.org/dc/dcmitype/StillImage" /><dc:title></dc:title></cc:Work></rdf:RDF></metadata><defs
     id="defs6"><inkscape:path-effect
       effect="spiro"
       id="path-effect4515"
       is_visible="true" /><clipPath
       id="clipPath16"
       clipPathUnits="userSpaceOnUse"><path
         id="path18"
         d="M 0,36 36,36 36,0 0,0 0,36 Z" /></clipPath></defs><g
     inkscape:groupmode="layer"
     id="layer1"
     inkscape:label="Layer 1"><g
       id="g24-3"
       transform="matrix(1.25,0,0,-1.25,14.157839,26.241079)" /><path
       id="path22"
       style="enable-background:new 0 0 45 45;fill:#ffcc4d;fill-opacity:1;fill-rule:nonzero;stroke:none"
       d="m 45,22.735952 c 0,12.42625 -10.07375,22.5 -22.5,22.5 -12.425,0 -22.5,-10.07375 -22.5,-22.5 0,-12.425 10.075,-22.5 22.5,-22.5 12.42625,0 22.5,10.075 22.5,22.5"
       inkscape:connector-curvature="0" /></g><g
     inkscape:groupmode="layer"
     id="layer2"
     inkscape:label="Layer 2" /><g
     inkscape:groupmode="layer"
     id="layer3"
     inkscape:label="Layer 3"><g
       transform="translate(-1.8066382,2)"
       id="g8010"><g
         id="g7921"
         transform="translate(0.3504265,-0.02395453)"><g
           id="g36-4-6"
           transform="matrix(2.1906268,0,0,-1.8813453,37.26344,17.514939)"
           style="fill:#664500;fill-opacity:1"><path
             inkscape:connector-curvature="0"
             d="M 0,0 C 0,-1.934 -1.119,-3.5 -2.5,-3.5 -3.881,-3.5 -5,-1.934 -5,0 -5,1.933 -3.881,3.5 -2.5,3.5 -1.119,3.5 0,1.933 0,0"
             style="fill:#664500;fill-opacity:1;fill-rule:nonzero;stroke:none"
             id="path38-1-6" /></g><g
           id="g36-4-1-5"
           transform="matrix(0.95560069,0,0,-0.82068513,33.466066,16.402656)"
           style="fill:#ffffff;fill-opacity:1"><path
             inkscape:connector-curvature="0"
             d="M 0,0 C 0,-1.934 -1.119,-3.5 -2.5,-3.5 -3.881,-3.5 -5,-1.934 -5,0 -5,1.933 -3.881,3.5 -2.5,3.5 -1.119,3.5 0,1.933 0,0"
             style="fill:#ffffff;fill-opacity:1;fill-rule:nonzero;stroke:none"
             id="path38-1-0-6" /></g><g
           id="g36-4-3-2-1"
           transform="matrix(0.41160108,0,0,-0.35348958,35.360798,20.291742)"
           style="fill:#ffffff;fill-opacity:1"><path
             inkscape:connector-curvature="0"
             d="M 0,0 C 0,-1.934 -1.119,-3.5 -2.5,-3.5 -3.881,-3.5 -5,-1.934 -5,0 -5,1.933 -3.881,3.5 -2.5,3.5 -1.119,3.5 0,1.933 0,0"
             style="fill:#ffffff;fill-opacity:1;fill-rule:nonzero;stroke:none"
             id="path38-1-5-0-3" /></g></g><g
         transform="translate(-15.310896,-0.28911957)"
         id="g7921-1"><g
           id="g36-4-6-7"
           transform="matrix(2.1906268,0,0,-1.8813453,37.26344,17.514939)"
           style="fill:#664500;fill-opacity:1"><path
             inkscape:connector-curvature="0"
             d="M 0,0 C 0,-1.934 -1.119,-3.5 -2.5,-3.5 -3.881,-3.5 -5,-1.934 -5,0 -5,1.933 -3.881,3.5 -2.5,3.5 -1.119,3.5 0,1.933 0,0"
             style="fill:#664500;fill-opacity:1;fill-rule:nonzero;stroke:none"
             id="path38-1-6-4" /></g><g
           id="g36-4-1-5-6"
           transform="matrix(0.95560069,0,0,-0.82068513,33.466066,16.402656)"
           style="fill:#ffffff;fill-opacity:1"><path
             inkscape:connector-curvature="0"
             d="M 0,0 C 0,-1.934 -1.119,-3.5 -2.5,-3.5 -3.881,-3.5 -5,-1.934 -5,0 -5,1.933 -3.881,3.5 -2.5,3.5 -1.119,3.5 0,1.933 0,0"
             style="fill:#ffffff;fill-opacity:1;fill-rule:nonzero;stroke:none"
             id="path38-1-0-6-7" /></g><g
           id="g36-4-3-2-1-6"
           transform="matrix(0.41160108,0,0,-0.35348958,35.360798,20.291742)"
           style="fill:#ffffff;fill-opacity:1"><path
             inkscape:connector-curvature="0"
             d="M 0,0 C 0,-1.934 -1.119,-3.5 -2.5,-3.5 -3.881,-3.5 -5,-1.934 -5,0 -5,1.933 -3.881,3.5 -2.5,3.5 -1.119,3.5 0,1.933 0,0"
             style="fill:#ffffff;fill-opacity:1;fill-rule:nonzero;stroke:none"
             id="path38-1-5-0-3-2" /></g></g></g><g
       transform="matrix(1.25,0,0,-1.25,37.499776,18.313304)"
       id="g28-3"><path
         id="path30-4"
         style="fill:#664500;fill-opacity:1;fill-rule:nonzero;stroke:none"
         d="M 0,0 C -0.124,0 -0.25,0.023 -0.371,0.072 -5.6,2.163 -7.743,5.312 -7.832,5.446 -8.139,5.905 -8.015,6.526 -7.555,6.833 -7.096,7.139 -6.477,7.016 -6.17,6.559 -6.151,6.531 -4.24,3.773 0.371,1.929 0.884,1.724 1.134,1.142 0.929,0.629 0.773,0.238 0.396,0 0,0"
         inkscape:connector-curvature="0" /></g><g
       transform="matrix(1.25,0,0,-1.25,7.5004016,18.313304)"
       id="g32-5"><path
         id="path34-9"
         style="fill:#664500;fill-opacity:1;fill-rule:nonzero;stroke:none"
         d="m 0,0 c -0.397,0 -0.772,0.238 -0.929,0.629 -0.205,0.513 0.044,1.095 0.557,1.3 C 4.24,3.773 6.151,6.531 6.17,6.559 6.478,7.015 7.099,7.136 7.557,6.829 8.013,6.521 8.137,5.904 7.832,5.446 7.743,5.312 5.599,2.163 0.371,0.072 0.249,0.023 0.124,0 0,0"
         inkscape:connector-curvature="0" /></g><g
       id="g32"
       transform="matrix(1.25,0,0,-1.25,29.355821,33.84875)"><path
         inkscape:connector-curvature="0"
         d="M -1.2216214,0.15 C -1.2309485,0.194 -2.1123676,4.422934 -5.4849225,4.422934 -8.859032,4.422934 -9.740451,0.194 -9.748224,0.15 c -0.0412,-0.213 0.03342,-0.431 0.179549,-0.544 0.146126,-0.112 0.336556,-0.086 0.46325,0.06 0.0078,0.007 0.7881471,1.8175941 3.6205025,1.8175941 2.7896058,0 3.5886347,-1.7845941 3.6189481,-1.8175941 0.07384,-0.09 0.1702211,-0.137 0.2673793,-0.137 0.06529,0 0.1313579,0.021 0.1912073,0.064 0.152344,0.112 0.228516,0.339 0.1857664,0.557"
         style="fill:#664500;fill-opacity:1;fill-rule:nonzero;stroke:none"
         id="path34"
         sodipodi:nodetypes="cscccscscc" /></g></g><g
     inkscape:groupmode="layer"
     id="layer4"
     inkscape:label="Layer 4"><g
       style="fill:#664500;fill-opacity:1"
       id="g56-4-6-7"
       transform="matrix(-1.2728236,-0.84184986,-0.8912406,1.2022863,23.321075,29.680409)" /><g
       id="g8069"
       transform="translate(0.6875,0.58578695)"><g
         style="fill:#5dadec;fill-opacity:1"
         transform="matrix(0.8756292,0,0,-0.475,37.781251,25.5)"
         id="g24"><path
           id="path26"
           style="fill:#5dadec;fill-opacity:1;fill-rule:nonzero;stroke:none"
           d="m 0,0 c 0,-2.762 -2.238,-5 -5,-5 -2.762,0 -5,2.238 -5,5 0,2.762 2.238,5 5,5 2.762,0 5,-2.238 5,-5"
           inkscape:connector-curvature="0" /></g><g
         style="fill:#5dadec;fill-opacity:1"
         transform="matrix(0.8756292,0,0,-0.475,14.600041,25.5)"
         id="g28"><path
           id="path30"
           style="fill:#5dadec;fill-opacity:1;fill-rule:nonzero;stroke:none"
           d="m 0,0 c 0,-2.762 -2.238,-5 -5,-5 -2.762,0 -5,2.238 -5,5 0,2.762 2.238,5 5,5 2.762,0 5,-2.238 5,-5"
           inkscape:connector-curvature="0" /></g></g></g></svg>

<svg xmlns="http://www.w3.org/2000/svg" xml:space="preserve" viewBox="0 0 45 45"><path d="M45 22.736c0 12.426-10.074 22.5-22.5 22.5S0 35.162 0 22.736 10.075.236 22.5.236 45 10.311 45 22.736" style="fill:#ffcc4d;fill-opacity:1;fill-rule:nonzero;stroke:none"/><g style="fill:#664500;fill-opacity:1"><path d="M0 0c0-1.934-1.119-3.5-2.5-3.5S-5-1.934-5 0s1.119 3.5 2.5 3.5S0 1.933 0 0" style="fill:#664500;fill-opacity:1;fill-rule:nonzero;stroke:none" transform="matrix(2.19063 0 0 -1.88135 35.807 19.491)"/></g><g style="fill:#fff;fill-opacity:1"><path d="M0 0c0-1.934-1.119-3.5-2.5-3.5S-5-1.934-5 0s1.119 3.5 2.5 3.5S0 1.933 0 0" style="fill:#fff;fill-opacity:1;fill-rule:nonzero;stroke:none" transform="matrix(.9556 0 0 -.82069 32.01 18.379)"/></g><g style="fill:#fff;fill-opacity:1"><path d="M0 0c0-1.934-1.119-3.5-2.5-3.5S-5-1.934-5 0s1.119 3.5 2.5 3.5S0 1.933 0 0" style="fill:#fff;fill-opacity:1;fill-rule:nonzero;stroke:none" transform="matrix(.4116 0 0 -.35349 33.905 22.268)"/></g><g style="fill:#664500;fill-opacity:1"><path d="M0 0c0-1.934-1.119-3.5-2.5-3.5S-5-1.934-5 0s1.119 3.5 2.5 3.5S0 1.933 0 0" style="fill:#664500;fill-opacity:1;fill-rule:nonzero;stroke:none" transform="matrix(2.19063 0 0 -1.88135 20.146 19.226)"/></g><g style="fill:#fff;fill-opacity:1"><path d="M0 0c0-1.934-1.119-3.5-2.5-3.5S-5-1.934-5 0s1.119 3.5 2.5 3.5S0 1.933 0 0" style="fill:#fff;fill-opacity:1;fill-rule:nonzero;stroke:none" transform="matrix(.9556 0 0 -.82069 16.349 18.114)"/></g><g style="fill:#fff;fill-opacity:1"><path d="M0 0c0-1.934-1.119-3.5-2.5-3.5S-5-1.934-5 0s1.119 3.5 2.5 3.5S0 1.933 0 0" style="fill:#fff;fill-opacity:1;fill-rule:nonzero;stroke:none" transform="matrix(.4116 0 0 -.35349 18.243 22.003)"/></g><path d="M0 0a1 1 0 0 0-.371.072C-5.6 2.163-7.743 5.312-7.832 5.446A1 1 0 0 0-6.17 6.559c.019-.028 1.93-2.786 6.541-4.63A1 1 0 0 0 0 0" style="fill:#664500;fill-opacity:1;fill-rule:nonzero;stroke:none" transform="matrix(1.25 0 0 -1.25 37.5 18.313)"/><path d="M0 0a1.001 1.001 0 0 0-.372 1.929C4.24 3.773 6.151 6.531 6.17 6.559a1 1 0 0 0 1.662-1.113C7.743 5.312 5.599 2.163.371.072A1 1 0 0 0 0 0" style="fill:#664500;fill-opacity:1;fill-rule:nonzero;stroke:none" transform="matrix(1.25 0 0 -1.25 7.5 18.313)"/><path d="M-1.222.15c-.009.044-.89 4.273-4.263 4.273C-8.859 4.423-9.74.194-9.748.15c-.041-.213.033-.431.18-.544.145-.112.336-.086.463.06.007.007.788 1.818 3.62 1.818 2.79 0 3.589-1.785 3.619-1.818a.35.35 0 0 1 .267-.137q.1 0 .192.064c.152.112.228.339.185.557" style="fill:#664500;fill-opacity:1;fill-rule:nonzero;stroke:none" transform="matrix(1.25 0 0 -1.25 29.356 33.849)"/><g style="fill:#5dadec;fill-opacity:1"><path d="M0 0a5 5 0 0 0-5-5 5 5 0 0 0-5 5 5 5 0 0 0 5 5 5 5 0 0 0 5-5" style="fill:#5dadec;fill-opacity:1;fill-rule:nonzero;stroke:none" transform="matrix(.87563 0 0 -.475 38.469 26.086)"/></g><g style="fill:#5dadec;fill-opacity:1"><path d="M0 0a5 5 0 0 0-5-5 5 5 0 0 0-5 5 5 5 0 0 0 5 5 5 5 0 0 0 5-5" style="fill:#5dadec;fill-opacity:1;fill-rule:nonzero;stroke:none" transform="matrix(.87563 0 0 -.475 15.288 26.086)"/></g></svg>
